X: 21581
T: The BROOM OF COWDENKNOWES
O: Popular set.
Q: "Slow."
%R: air, strathspey
B: W. Hamilton "Universal Tune-Book" Vol. 2 Glasgow 1846 p.158 #1
S: http://s3-eu-west-1.amazonaws.com/itma.dl.printmaterial/book_pdfs/hamiltonvol2web.pdf
Z: 2016 John Chambers <jc:trillian.mit.edu>
M: C
L: 1/8
K: D
% - - - - - - - - - - - - - - - - - - - - - - - - -
D |\
D3 F A3 B | (AF) (D>E) D2 (d>A) |\
B2 (d>e) {de}f2 (e>d) | B6 d2 |\
A>B (d>e) {de}f2 (e>d) | d2 (D>E) F2 (ED) |\
G3 A (B>cd)F | E4 z4 |]
D3 F A3 B | (AF) (E>F) D2 (d>A) |\
B2 (d>e) ({e}d>ef)A | B4 z3d |\
(A>B)(d>e) f2 (e>d) | (dc)(BA) {G}F2 (ED) |\
G3 B (A>Bd)F | E4 z2z |]
% - - - - - - - - - - - - - - - - - - - - - - - - -

%%sep 1 1 500
%%sep 1 1 500

